X:1
T:There Is Power in the Blood
T:There Is Power in the Blood
T:Lewis Edgar Jones
T:Lewis Edgar Jones, 1899
T:Public Domain Courtesy of the Cyber Hymnal™
T:Public Domain Courtesy of the Cyber Hymnal™
C:Lewis Edgar Jones
Z:Public Domain
Z:Courtesy of the Cyber Hymnal™
%%score ( 1 2 ) ( 3 4 )
L:1/8
Q:1/4=105
M:4/4
K:Bb
V:1 treble 
V:2 treble 
V:3 bass 
V:4 bass 
V:1
 [DF]2 [DF][DF] [DF]2 [DF][DF] | [EG]2 [EG][EG] [DF]3 [FB] | [FA]2 [Fc]>[F=B] c4 | %3
w: 1.~Would you be free from the|bur- den of sin? There’s|power in the blood,|
w: 2.~Would you be free from your|pas- sion and pride? There’s|power in the blood,|
w: 3.~Would you be whit- er, much|whit- er than snow? There’s|power in the blood,|
w: 4.~Would you do ser- vice for|Je- sus your king? There’s|power in the blood,|
 [DB]2 [Fd]>[=E^c] [Fd]4 | [DF]2 [DF][DF] [DF]2 [DF][DF] | [EG]2 [EG][EG] [DF]3 [FB] | %6
w: power in the blood;|Would you o’er e- vil a|vic- to- ry win? There’s|
w: power in the blood;|Come for a cleans- ing to|Cal- va- ry’s tide; There’s|
w: power in the blood;|Sin stains are lost in its|life giv- ing flow. There’s|
w: power in the blood;|Would you live dai- ly His|prais- es to sing? There’s|
 [FA]2 [FA]>[FA] [Ec]2 [DB][CA] | [DB]6 ||"^Refrain" [DF][DB] | [Fd]4 [Fd]4 | %10
w: won- der- ful power in the|blood.|||
w: won- der- ful power in the|blood.|There is|power, power,|
w: won- der- ful power in the|blood.|||
w: won- der- ful power in the|blood.|||
 [Gc][GB][GB][EG] [DF]2 [CA]>[DB] | [Ec]6 [DB]>[Ec] | [Fd]6 [DF][DB] | [Fd]4 [Fd]4 | %14
w: ||||
w: won- der work- ing power In the|blood of the|Lamb; There is|power, power,|
w: ||||
w: ||||
 [Gc][GB][GB][EG] [DF]2 [CA]>[DB] | [Ec]3 [Fe] [Fd]2 [Ec]>[Ec] | [DB]8 |] %17
w: |||
w: won- der work- ing power In the|pre- cious blood of the|Lamb.|
w: |||
w: |||
V:2
 x8 | x8 | x4 (F2 E2) | x8 | x8 | x8 | x8 | x6 || x2 | x8 | x8 | x8 | x8 | x8 | x8 | x8 | x8 |] %17
V:3
 [B,,B,]2 [B,,B,][B,,B,] [B,,B,]2 [B,,B,][B,,B,] | [E,B,]2 [E,B,][E,B,] [B,,B,]3 [B,,D] | %2
 [F,C]2 [F,A,]>[F,^G,] [F,A,]4 | [B,,F,]2 [B,,B,]>[B,,B,] [B,,B,]4 | %4
 [B,,B,]2 [B,,B,][B,,B,] [B,,B,]2 [B,,B,][B,,A,] | [E,B,]2 [E,B,][E,B,] [B,,B,]3 [A,,D] | %6
 [F,C]2 [F,C]>[F,C] [F,A,]2 F,F, | [B,,F,]6 || [B,,B,][B,,B,] | ([B,,B,]2 [D,B,][F,B,]) B,4 | %10
 [E,B,][E,B,][E,B,][E,B,] [B,,B,]2 z2 | z2 ([F,A,]>[F,A,] [F,A,]2) z2 | %12
 z2 ([B,,B,]>[B,,B,] [B,,B,]2) [B,,B,][B,,B,] | ([B,,B,]2 [D,B,][F,B,]) B,4 | %14
 [E,B,][E,B,][E,B,][E,B,] [B,,B,]2 [F,C]>[F,C] | [F,A,]3 [F,C] [F,B,]2 [F,A,]>[F,A,] | %16
 [B,,F,B,]8 |] %17
V:4
 x8 | x8 | x8 | x8 | x8 | x8 | x6 F,F, | x6 || x2 | x4 B,4 | x8 | x8 | x8 | x4 B,4 | x8 | x8 | %16
 x8 |] %17

